dist/images/partners/geox.svg

<svg width="159" height="26" viewBox="0 0 159 26" fill="none" xmlns="http://www.w3.org/2000/svg">
<path d="M29.9493 11.0976C33.1719 11.0976 36.3945 11.0961 39.6171 11.0985C40.7386 11.0993 41.0334 11.431 41.0734 12.5667C41.2299 17.0027 38.8959 19.8973 35.3319 22.0062C31.3508 24.3619 26.9992 25.4066 22.4217 25.5287C19.1985 25.6146 15.9774 25.5621 12.8114 24.8057C9.64645 24.0496 6.69142 22.8453 4.07831 20.8353C-1.84038 16.2825 -0.815701 9.25376 3.94558 5.46591C6.92032 3.09926 10.3225 1.6802 14.0101 1.04303C20.4806 -0.074852 26.8806 0.156936 33.1081 2.50103C35.0327 3.22549 36.8108 4.20707 38.3601 5.57411C38.5709 5.76018 38.7977 6.22048 38.7091 6.38941C38.5844 6.6275 38.174 6.83875 37.8828 6.84254C35.2846 6.87641 32.6851 6.8792 30.0867 6.84342C29.7062 6.83813 29.2793 6.65471 28.958 6.43047C23.9943 2.96473 16.4295 3.1916 11.9825 6.96069C8.8674 9.60107 8.10157 13.5351 10.0913 16.8301C11.2956 18.8248 13.0699 20.1625 15.2012 20.9714C19.6031 22.6421 23.8824 22.3702 27.9394 19.8825C29.4786 18.9387 30.6741 17.6366 31.4233 15.9549C31.7641 15.1901 31.6323 14.9784 30.785 14.9772C27.292 14.9725 23.7992 14.9755 20.3062 14.9747C19.1592 14.9745 18.8715 14.6851 18.867 13.5299C18.8654 13.1309 18.8609 12.732 18.8688 12.3331C18.8856 11.4816 19.235 11.1233 20.0945 11.101C20.7178 11.0849 21.3418 11.0974 21.9657 11.0972C24.6268 11.0975 27.288 11.0975 29.9493 11.0976Z" fill="#898989"/>
<path d="M97.4643 25.6607C93.4474 25.6139 89.543 25.0791 85.8042 23.5525C83.7281 22.7048 81.8227 21.5837 80.1478 20.064C75.4636 15.8137 76.3724 9.64098 80.1519 6.14273C82.7607 3.72823 85.8652 2.23722 89.2585 1.43654C95.9992 -0.153982 102.686 -0.0411118 109.225 2.50579C111.584 3.42451 113.683 4.74167 115.388 6.65305C119.354 11.1004 118.809 17.1335 114.094 20.7693C110.88 23.2478 107.184 24.5729 103.23 25.1606C101.325 25.4439 99.3871 25.5011 97.4643 25.6607ZM85.9629 12.9729C85.9769 13.2665 85.9866 13.5602 86.0068 13.8531C86.0153 13.978 86.0431 14.1018 86.0666 14.2251C86.5583 16.811 88.096 18.6454 90.2421 19.9889C93.1119 21.7855 96.2626 22.3106 99.5786 21.8539C101.97 21.5246 104.149 20.6448 106.019 19.0705C109.937 15.7728 110.054 10.6629 106.297 7.18805C101.643 2.88334 93.0761 2.95803 88.5133 7.35812C86.9332 8.88174 85.9868 10.7178 85.9629 12.9729Z" fill="#898989"/>
<path d="M123.738 24.8365C122.054 24.8362 120.369 24.8575 118.686 24.8207C118.282 24.8119 117.883 24.6094 117.481 24.496C117.744 24.1731 117.95 23.769 118.276 23.5397C122.643 20.4735 127.027 17.4317 131.407 14.3838C132.56 13.5815 132.56 12.5159 131.399 11.7311C127.03 8.7794 122.659 5.83153 118.289 2.88176C118.134 2.77696 117.922 2.70087 117.841 2.55285C117.672 2.24484 117.465 1.88734 117.493 1.57065C117.508 1.4123 118.006 1.18517 118.287 1.18265C121.301 1.15557 124.316 1.16602 127.33 1.16854C128.481 1.16955 129.431 1.55855 130.29 2.39248C132.536 4.57546 134.854 6.68411 137.144 8.82185C137.98 9.60213 138.396 9.6093 139.218 8.84339C141.616 6.60853 144.022 4.3797 146.404 2.12744C146.998 1.56585 147.672 1.23669 148.465 1.22032C150.397 1.18038 152.331 1.1766 154.264 1.16564C155.511 1.15859 156.76 1.13642 158.005 1.18391C158.328 1.19626 158.795 1.36027 158.927 1.6034C159.154 2.02276 158.81 2.39009 158.452 2.6428C157.958 2.99135 157.453 3.32241 156.953 3.66053C152.98 6.34196 149.009 9.02619 145.033 11.7012C144.539 12.0333 144.165 12.4248 144.145 13.0543C144.128 13.606 144.393 13.9797 144.847 14.2941C149.235 17.3296 153.614 20.3777 157.987 23.4352C158.372 23.7051 159.043 23.9249 158.839 24.4915C158.752 24.7309 158.009 24.8188 157.563 24.8223C154.216 24.8487 150.869 24.8282 147.522 24.8422C146.634 24.846 145.908 24.5333 145.287 23.9101C143.24 21.8509 141.19 19.7955 139.139 17.7391C138.422 17.0209 137.962 17.0245 137.239 17.7502C135.236 19.7634 133.223 21.7698 131.23 23.794C130.53 24.5034 129.734 24.8672 128.727 24.8461C127.065 24.8114 125.401 24.8367 123.738 24.8365Z" fill="#898989"/>
<path d="M60.8653 24.8283C56.2706 24.8283 51.6758 24.8295 47.0811 24.8278C45.2765 24.8271 44.6996 24.2429 44.699 22.4116C44.6974 16.1341 44.6972 9.85672 44.6992 3.5794C44.6998 1.77359 45.2945 1.16792 47.1033 1.16691C56.376 1.16225 65.6487 1.16363 74.9215 1.16603C76.0838 1.16628 76.3897 1.48763 76.3918 2.66786C76.3955 4.79894 76.3353 4.85991 74.2301 4.86004C67.9928 4.86004 61.7556 4.85978 55.5184 4.86029C54.2534 4.86042 54.0208 5.09221 54.0184 6.35419C54.0163 7.42495 54.0183 8.49559 54.0177 9.56635C54.0171 10.9298 54.269 11.1901 55.6049 11.1904C60.7195 11.1914 65.834 11.1908 70.9485 11.191C71.1564 11.191 71.3653 11.182 71.5719 11.1988C72.1907 11.2493 72.5234 11.5783 72.5485 12.2C72.5705 12.745 72.5698 13.2921 72.5493 13.8372C72.525 14.4821 72.1715 14.82 71.5243 14.8559C71.3586 14.865 71.1918 14.8581 71.0254 14.8581C65.9318 14.8581 60.8381 14.8569 55.7442 14.8611C55.4345 14.8613 55.119 14.8733 54.8165 14.9333C54.3321 15.0298 54.0392 15.3512 54.0345 15.8559C54.0207 17.3041 54.0106 18.7531 54.0396 20.2011C54.0533 20.8856 54.4278 21.1553 55.2327 21.1557C59.4325 21.1579 63.6322 21.1567 67.8319 21.1567C70.2436 21.1567 72.6554 21.1542 75.067 21.158C76.0199 21.1594 76.3753 21.5215 76.3906 22.4892C76.396 22.825 76.3937 23.161 76.3911 23.497C76.3837 24.492 76.0638 24.825 75.0861 24.8267C72.6121 24.8311 70.138 24.8283 67.6638 24.8283C65.3977 24.8284 63.1315 24.8283 60.8653 24.8283Z" fill="#898989"/>
</svg>

<svg width="159" height="26" fill="none" xmlns="http://www.w3.org/2000/svg"><path d="M29.95 11.098c3.222 0 6.445-.002 9.667 0 1.122.001 1.416.333 1.456 1.469.157 4.436-2.177 7.33-5.741 9.44-3.981 2.355-8.333 3.4-12.91 3.522-3.224.086-6.445.033-9.61-.723-3.166-.756-6.12-1.96-8.734-3.97-5.918-4.553-4.894-11.582-.132-15.37C6.92 3.099 10.323 1.68 14.01 1.043 20.48-.075 26.88.157 33.108 2.501c1.925.724 3.703 1.706 5.252 3.073.21.186.438.646.35.815-.126.239-.536.45-.827.454-2.598.033-5.198.036-7.796 0-.38-.005-.808-.188-1.129-.413-4.964-3.465-12.528-3.238-16.975.53-3.116 2.641-3.881 6.575-1.892 9.87 1.205 1.995 2.979 3.333 5.11 4.141 4.402 1.671 8.681 1.4 12.738-1.088 1.54-.944 2.735-2.246 3.484-3.928.341-.765.21-.977-.638-.978-3.493-.005-6.986-.002-10.479-.002-1.147 0-1.434-.29-1.439-1.445-.002-.4-.006-.798.002-1.197.017-.851.366-1.21 1.226-1.232.623-.016 1.247-.004 1.87-.004h7.984zM97.464 25.66c-4.017-.046-7.921-.58-11.66-2.108-2.076-.847-3.981-1.968-5.656-3.488-4.684-4.25-3.776-10.423.004-13.921 2.609-2.415 5.713-3.906 9.106-4.706C96-.154 102.686-.041 109.225 2.506c2.359.919 4.458 2.236 6.163 4.147 3.966 4.447 3.421 10.48-1.294 14.116-3.214 2.479-6.91 3.804-10.864 4.392-1.905.283-3.843.34-5.766.5zM85.963 12.974c.014.293.024.587.044.88.008.125.036.249.06.372.491 2.586 2.029 4.42 4.175 5.764 2.87 1.796 6.02 2.322 9.337 1.865 2.391-.33 4.57-1.21 6.44-2.784 3.918-3.297 4.035-8.407.278-11.882-4.654-4.305-13.22-4.23-17.784.17-1.58 1.524-2.526 3.36-2.55 5.615z" fill="#898989"/><path d="M123.738 24.837c-1.684 0-3.369.02-5.052-.016-.404-.01-.803-.212-1.205-.325.263-.323.469-.727.795-.956 4.367-3.066 8.751-6.108 13.131-9.156 1.153-.803 1.153-1.868-.008-2.653-4.369-2.952-8.74-5.9-13.11-8.85-.155-.104-.367-.18-.448-.328-.169-.308-.376-.666-.348-.982.015-.159.513-.386.794-.388 3.014-.027 6.029-.017 9.043-.014 1.151 0 2.101.39 2.96 1.223 2.246 2.183 4.564 4.292 6.854 6.43.836.78 1.252.787 2.074.021 2.398-2.234 4.804-4.463 7.186-6.716.594-.561 1.268-.89 2.061-.907 1.932-.04 3.866-.043 5.799-.054 1.247-.007 2.496-.03 3.741.018.323.012.79.176.922.42.227.419-.117.786-.475 1.039-.494.348-.999.68-1.499 1.018-3.973 2.681-7.944 5.365-11.92 8.04-.494.332-.868.724-.888 1.353-.017.552.248.926.702 1.24a3309.67 3309.67 0 0113.14 9.141c.385.27 1.056.49.852 1.056-.087.24-.83.328-1.276.331-3.347.027-6.694.006-10.041.02-.888.004-1.614-.309-2.235-.932-2.047-2.06-4.097-4.114-6.148-6.17-.717-.72-1.177-.715-1.9.01-2.003 2.013-4.016 4.02-6.009 6.044-.7.71-1.496 1.073-2.503 1.052-1.662-.035-3.326-.01-4.989-.01zm-62.873-.009c-4.594 0-9.19.002-13.784 0-1.805 0-2.381-.585-2.382-2.416-.002-6.278-.002-12.555 0-18.833 0-1.805.596-2.411 2.404-2.412 9.273-.005 18.546-.003 27.818-.001 1.163 0 1.469.322 1.47 1.502.004 2.13-.056 2.192-2.16 2.192H55.517c-1.265 0-1.497.232-1.5 1.494-.002 1.07 0 2.142 0 3.212 0 1.364.251 1.624 1.587 1.624l15.343.001c.208 0 .417-.009.624.008.619.05.951.38.977 1.001a21.03 21.03 0 010 1.637c-.024.645-.378.983-1.025 1.019-.165.009-.332.002-.499.002-5.093 0-10.187-.001-15.28.003-.31 0-.626.012-.928.072-.485.097-.778.418-.782.923-.014 1.448-.024 2.897.005 4.345.013.685.388.954 1.193.955 4.2.002 8.4 0 12.599 0 2.412 0 4.823-.002 7.235.002.953.001 1.308.363 1.324 1.331.005.336.003.672 0 1.008-.007.995-.327 1.328-1.305 1.33-2.474.004-4.948.001-7.422.001h-6.799z" fill="#898989"/></svg>
